X:297
T:Under der linden an der heide
Z:Jack Campin, http://www.campin.me.uk/
F:Jack Campin's Nine-Note Tunebook
% last edit 03-02-2013
C:Walther van der Vogelweide
S:the way Andrea van Ramm sang it with Syntagma
N:Musicum but with a few extra gracenotes
M:3/4
L:1/8
Q:1/4=90
K:F
   A4 {G}AG|   A3 A{B}AG|    F4 {GF}E2|{FG}F4-   Fz|
   A4 {G}AG|   A3 A{B}AG|    F4 {GF}E2|{FG}F4-   Fz|
   G4 {A}GF|   A4  {G}A2|    G4 {FG}A2|{FG}E4 {G}F2|
   G4 {A}GF|   A4  {G}A2|    F4 {GF}E2| {A}F4-   Fz|
   A4 {G}A2|{G}A4  {G}A2| {G}A4  {G}A2| {G}A4    z2|\
{B}A4 {G}AE|{G}F4     z2|
   G4 {F}GF|   A4  {G}A2|{FA}F4 {GF}E2|{FG}F6     |]

